X: 834
T: Geçti Ömrün Nev-baharı
C: Sadi Hoşses
O: Turkey
F: http://compmusic.upf.edu/node/140
N: kurdilihicazkar--sarki--musemmen--gecti_omrun--sadi_hosses
N: makam= kurdilihicazkar
N: form= sarki
N: usul= musemmen = 8/8
M: 8/8
L: 1/16
K: C _B _e _A 
Q: 1/4=120
%%MIDI tuningsystem comma53
g2f2 _3/4e2d2 {e}def4z2  | f2e2 d2c2 {d}cde4z2  | \
w:  ARANAĞME  |   | 
e2d2 c2_2/4B2 c2d2 _2/4e2f2  | 
w:   | 
gb=ag gf{g}f_1/4e _2/4edd4z2  | g2f2 _3/4e2d2 {e}def4z2  | \
w:   |  ARANAĞME  | 
f2e2 d2c2 {d}cde4z2  | 
w:   | 
e2d2 c2B2 edcB AGF2  | edc2 cBBA AGG6  | 
w:   |   | 
f4 g2{b}g2 ag{a}g4z2  | a2g2 a2gf f_1/4ef4z2  | \
w:  Geç ti  *  öm *  *  *  rün   |  nev *  ba ha *  *  *  rı   | 
g2a2 b2c'2 {e'}d'c'b2 aga2  | 
w:  bül *  bül_ ol *  *  *  muş   | 
c'2ba {b}agg4a3/2g/ a2z2  | g2a2 b2c'2 {a}d'c'b2 aga2  | \
w:  ney *  *  *  le *  yim   SAZ  |  bül *  bül_ ol *  *  *  muş   | 
c'ba2 ag{b}g8z2  | 
w:  ney *  le *  *  *  yim    | 
f4 g2{b}g2 ag{a}g4z2  | a2g2 a2gf f_1/4ef4z2  | \
w:  Geç ti  *  öm *  *  *  rün   |  nev *  ba ha *  *  *  rı   | 
g2a2 b2c'2 {e'}d'c'b2 aga2  | 
w:  bül *  bül_ ol *  *  *  muş   | 
c'2ba {b}agg4a3/2g/ a2z2  | g2a2 b2c'2 {a}d'c'b2 aga2  | \
w:  ney *  *  *  le *  yim   SAZ  |  bül *  bül_ ol *  *  *  muş   | 
c'ba2 ag{b}g4cd efg2  | 
w:  ney *  le *  *  *  yim   SAZ  | 
f4 g2g3fe3/2d/ e2z2  | f2g2 _3/4a2b2 _agg2 f2_2/4e2  | \
w:  Bah çe ler  *  hep   |  lâ *  le  sün *  *  bül   | 
f2_2/4e2 edd2 b2=a2 g2f2  | 
w:  gül *  le  *  dol *  muş   | 
g2f_7/8e ed{e}d4cd _efg2  | f4 g2g3fe3/2d/ e2z2  | \
w:  ney *  *  le *  *  yim    |  Bah çe ler  *  hep   | 
f2g2 _3/4a2b2 _aggf edc2  | 
w:  lâ *  le  sün *  *  bül   | 
B2A2 AGG2 e2d2 c2B2  | cBA2 AGG4d6  | \
w:  gül *  le  *  dol *  muş   |  ney *  *  le *  yim   SAZ  | 
c4 d2d2 {f}edd4z2  | 
w:  Zevk_ i  câ *  *  *  nân   | 
f2e2 dedc c_1/4Bc4z2  | d2_2/4e2 f2g2 =a2f2 ede2  | \
w:  ol *  ma *  yın *  *  *  ca   |  bâ *  de  bol *  muş   | 
g2f_3/4e _edd2 c2B2 A2G2  | 
w:  ney *  *  le *  yim    | 
c4 d2d2 {f}edd4z2  | f2e2 dedc c_1/4Bc4z2  | \
w:  Zevk_ i  câ *  *  *  nân   |  ol *  ma *  yın *  *  *  ca   | 
d2_2/4e2 f2g2 agag fef2  | 
w:  bâ *  de  bol *  *  muş   | 
c'2ba agg4cd efg2  | f4 g2g3fe3/2d/ e2z2  | \
w:  ney *  *  le *  yim   SAZ  |  Bah çe ler  *  hep   | 
f2g2 _3/4a2b2 _agg2 f2_2/4e2  | 
w:  lâ *  le  sün *  *  bül   | 
f2_2/4e2 edd2 b2=a2 g2f2  | g2f_7/8e ed{e}d4cd _efg2  | \
w:  gül *  le  *  dol *  muş   |  ney *  *  le *  *  yim    | 
f4 g2g3fe3/2d/ e2z2  | 
w:  Bah çe ler  *  hep   | 
f2g2 _3/4a2b2 _aggf edc2  | B2A2 AGG2 e2d2 c2B2  | \
w:  lâ *  le  sün *  *  bül   |  gül *  le  *  dol *  muş   | 
cBA2 AGG4|
w:  ney *  *  le *  yim    | 


